X: 33586
T: Rakes Of Mallow, The
R: polka
M: 2/4
K: Gmajor
|:GB GB|GB c/B/A/G/|FA FA|FA B/A/G/F/|
GB GB|GB d2|c/B/A/G/ F/G/A/c/|BG G2:|
|:gf ed|Bc d2|gf ed|Bc A2|
gf ed|Bc d2|c/B/A/G/ F/G/A/c/|BG G2:|

